X: 1739
T: Sensizliği Ben Seçmedim
C: Zekâi Tunca
O: Turkey
F: http://compmusic.upf.edu/node/140
N: hicaz--sarki--duyek--sensizligi_ben--zekai_tunca
N: makam= hicaz
N: form= sarki
N: usul= duyek = 8/4
M: 8/4
L: 1/16
K: C _7/8B ^f ^c 
Q: 1/4=216
%%MIDI tuningsystem comma53
z2 a2 a2 a2 a2 =f6  | =f6 d2 d4 B4  | \
w:   |   | 
z2 g2 g2 g2 g2 e6  | e6 c2 d2 e2 =f4  | 
w:   |   | 
z2 =f2 f4 f4 d2 f2  | =f2 d4 d2 d2 B2 B2 A2  | \
w:   |   | 
A2 B2 A2 B2 A2 B2 c2 d2  | 
w:   | 
e2 g4 =fe e8  | z2 a2 a2 a2 a2 =f6  | \
w:   |   | 
=f6 d2 d4 B4  | z2 g2 g2 g2 g2 e6  | 
w:   |   | 
e6 c2 d2 e2 =f4  | z2 =f2 f4 f4 d2 f2  | \
w:   |   | 
=f2 d4 d2 d2 B2 B2 A2  | A2 B2 A2 B2 A2 B2 c2 d2  | 
w:   |   | 
e2 c4 B2 A8  | c4 B4 B2 A6  | B4 A4 A2 B2 c2 d2  | \
w:   |  Sen siz li ği   |  ben  seç me dim    | 
e4 c4 B2 A6  | {d}c4 B2 B2 A6 z2  | 
w:  Ben  seç me dim   |  *  ay rı lı ğı    | 
A4 d4 d2 d6  | d2 d4 e2 d2 c6  | z2 e4 =f2 e2 f2 e2 d2  | \
w:  İn cit me yi   |  *  is te me dim    |  Sen  çı kar *  dın   | 
g4 =f2 e2 f2 e6  | 
w:  dar gın *  lı ğı    | 
z2 a2 a2 a2 a2 =f6  | =f6 d2 c2 B2 A4  | \
w:  SAZ  |  SAZ  | 
c4 B4 B2 A6  | B4 A4 A2 B2 c2 d2  | 
w:  Sen siz li ği   |  ben  seç me dim    | 
e4 c4 B2 A6  | {d}c4 B2 B2 A6 z2  | A4 d4 d2 d6  | \
w:  Ben  seç me dim   |  *  ay rı lı ğı    |  İn cit me yi   | 
d2 d4 e2 d2 c6  | z2 e4 =f2 e2 f2 e2 d2  | 
w:  *  is te me dim    |  Sen  çı kar *  dın   | 
g4 =f2 e2 f2 e6  | z2 a2 a2 a2 a2 =f6  | \
w:  dar gın *  lı ğı    |  SAZ  | 
=f6 d2 ^f2 g2 a4  | z2 a4 a2 a4 a4  | 
w:  SAZ  |  Var lı ğın la   | 
a2 =f6 f3e d4  | z2 g2 g4 g4 e4  | e4 d2 e2 =f8  | \
w:  yü cel tir *  ken   |  yok lu ğun la   |  ez me  be ni    | 
z4 =f2 f2 f2 d6  | d4 d2 d2 d2 B2 B2 A2  | 
w:  Ge li şi ne   |  *  se vi nir *  ken    | 
z4 A2 B2 c4 d4  | e2 g2 g2 =f2 e8  | \
w:  Gi di şin le   |  üz *  me  be ni    | 
a6 a2 g4 f4  | g6 A2 =f2 e2 e4  | =b4 g2 =f2 e4 z4  | 
w:  Git me  git me   |  git me  üz *  me   |  üz me  be ni   | 
=f4 e4 f2 f2 e4  | z2 a4 a2 a4 a4  | \
w:  üz me  SAZ  |  Var lı ğın la   | 
a2 =f6 f3e d4  | z2 g2 g4 g4 e4  | e4 d2 e2 =f8  | 
w:  yü cel tir *  ken   |  Yok lu ğun la   |  ez me  be ni    | 
z4 =f2 f2 f2 d6  | d4 d2 d2 d2 B2 B2 A2  | \
w:  Ge li şi ne   |  *  se vi nir *  ken    | 
z4 A2 B2 c4 e4  | d4 c2 B2 A8  | 
w:  Gi di şin le   |  üz me  be ni    | 
=f6 d2 e4 c4  | d6 d2 c2 B2 A4  | e4 c2 B2 A4 z4  | \
w:  Git me  git me   |  git me  üz *  me   |  üz me  be ni   | 
B4 A4 B2 B2 A4  | z2 a2 a2 a2 a2 =f6  | 
w:  üz me   SAZ  |  SAZ  | 
=f6 d2 d4 B4  | z2 g2 g2 g2 g2 e6  | \
w:   |   | 
e6 c2 d2 e2 =f4  | z2 =f2 f2 d2 f4 d2 f2  | 
w:   |   | 
=f2 d4 d2 d2 B2 B2 A2  | A2 B2 A2 B2 A2 B2 c2 d2  | \
w:   |   | 
e2 c4 B2 A4 f4  | z4 g2 f2 g2 f2 f4  | 
w:   |  Se vi nir *  ken   | 
f4 d4 f2 f6  | z4 a2 a2 a2 a4 f2  | a4 f2 a2 a6 z2  | \
w:  ben  bah tı ma    |  Se ni  ba na   |  ver di  di ye    | 
b4 b4 a4 g4  | b4 a2 g2 b2 b4 a2  | 
w:  Bir den  kop tu   |  bir  fır *  tı na    | 
c'4 c'4 b4 a4  | c'2 c'4 b2 a6 z2  | \
w:  Bir  söz  yet ti   |  bu  sev gi ye    | 
z2 d'2 d'2 d'2 c'2 b2 a2 g2  | z2 a4 _7/8g2 =g2 a2 f4  | 
w:  SAZ  |  SAZ  | 
z4 g2 f2 g2 f2 f4  | f4 d4 f2 f6  | z4 a2 a2 a2 a4 f2  | \
w:  Se vi nir *  ken   |  ben  bah tı ma    |  Se ni  ba na   | 
a4 f2 a2 a6 z2  | 
w:  ver di  di ye    | 
b4 b4 a4 g4  | b4 a2 g2 b2 b4 a2  | c'4 c'4 b4 a4  | \
w:  Bir den  kop tu   |  bir  fır *  tı na    |  Bir  söz  yet ti   | 
c'2 c'4 b2 a6 z2  | z2 d'2 d'2 d'2 c'2 b2 a2 g2  | 
w:  bu  sev gi ye    |  SAZ  | 
z2 f4 d2 f2 g2 a4  | z2 a4 a2 a4 a4  | \
w:  SAZ  |  Var lı ğın la   | 
a2 =f6 f3e d4  | z2 g2 g4 g4 e4  | 
w:  yü cel tir *  ken   |  yok lu ğun la   | 
e4 d2 e2 =f8  | z4 =f2 f2 f2 d6  | d4 d2 d2 d2 B2 B2 A2  | \
w:  ez me  be ni    |  Ge li şi ne   |  *  se vi nir *  ken    | 
z4 A2 B2 c4 d4  | 
w:  Gi di şin le   | 
e2 g2 g2 =f2 e8  | a6 a2 g4 f4  | g6 A2 =f2 e2 e4  | \
w:  üz *  me  be ni    |  Git me  git me   |  git me  üz *  me   | 
=b4 g2 =f2 e4 z4  | =f4 e4 f2 f2 e4  | 
w:  üz me  be ni   |  üz me  SAZ  | 
z2 a4 a2 a4 a4  | a2 =f6 f3e d4  | z2 g2 g4 g4 e4  | \
w:  Var lı ğın la   |  yü cel tir *  ken   |  Yok lu ğun la   | 
e4 d2 e2 =f8  | z4 =f2 f2 f2 d6  | 
w:  ez me  be ni    |  Ge li şi ne   | 
d4 d2 d2 d2 B2 B2 A2  | z4 A2 B2 c4 e4  | \
w:  *  se vi nir *  ken    |  Gi di şin le   | 
d4 c2 B2 A8  | =f6 d2 e4 c4  | d6 d2 c2 B2 A4  | 
w:  üz me  be ni    |  Git me  git me   |  git me  üz *  me   | 
e4 c2 B2 A4 z4  | B4 A4 B2 B2 A4  | |


